X:1
T:Title
T:Dreaming - Träumerei Interpretation Birgit Leonhardt 
T:Robert Schumann * 8. Juni 1810 in Zwickau, Königreich Sachsen; † 29. Juli 1856 in Endenich, Rheinprovinz
C:Composer
%%score ( 1 2 3 ) ( 4 5 6 )
L:1/8
M:none
K:F
V:1 treble nm="Klavier" snm="Klav."
V:2 treble 
V:3 treble 
V:4 bass nm="Klavier" snm="Klav."
V:5 bass 
V:6 bass 
V:1
 z4 z2[Q:1/4=60] C2 |: z4[Q:1/4=40] z[Q:1/4=60] EFA | z f f4[Q:1/4=65] z2 | z2 .[B,G]2 z2 .[F,F]2 | %4
 z8[Q:1/4=50][Q:1/4=45] | z4 z[Q:1/4=55] EFA | z a z2[Q:1/4=65] z4 | z4[Q:1/4=70] e4[Q:1/4=60] | %8
 d2 z2[Q:1/4=55][Q:1/4=45] c4[Q:1/4=65] :| z4[Q:1/4=40] z[Q:1/4=55] EFA | %10
[Q:1/4=65] z2 [A_e]4[Q:1/4=60] z2 | z4[Q:1/4=70] B4[Q:1/4=60] | G4[Q:1/4=55] D2[Q:1/4=45] z2 | %13
 z4 z[Q:1/4=55] ABd | f2[Q:1/4=65] [eb]4 z2 |[Q:1/4=70] z4 f4[Q:1/4=60] | %16
 d3[Q:1/4=50] A- A z[Q:1/4=60] z2 | z4[Q:1/4=45] z[Q:1/4=65] EFA | z f[Q:1/4=60] f4 z2 | %19
 z2[Q:1/4=70] .[B,G]2 z2[Q:1/4=65] .[F,F]2 |[Q:1/4=50] z8[Q:1/4=45][Q:1/4=55] | %21
[Q:1/4=45] z4 z[Q:1/4=65] EFA | c[Q:1/4=50]a a2- a[Q:1/4=60]gfd | %23
[Q:1/4=65] cf[Q:1/4=70][CE]-[C-E-A][Q:1/4=65] [C-E-B][Q:1/4=60][CEd][Q:1/4=55]G[^FA] | %24
[Q:1/4=45] Bd[Q:1/4=30]D[Q:1/4=25]C-[Q:1/4=20] [A,CF]4 |] %25
V:2
 x8 |: F4 z2 x2 | .c>.B,, F4- [F-e][F-d] | [F-c][Ff]E-[E-A] [EB]2 C-[G,C-EG] | %4
 [A,CFA]2 [G,CEG]4 x2 | F6 x2 | .c>.^C, a2- agfe | fad[_Af] x cE_e | x G e2 .[CE]2 x2 :| F6 x2 | %10
 c[B_e] x A, x ^Fdc | BdG[_EA] x GB,A | x DG,D x G,G,,[A,,F] | B6 x2 | x b x E x ^cag | %15
 fad[Be] x dFe | x A .D2 [DF]2 [EG]2 | F6 x2 | .c>.B,, F4- [F-e][F-d] | %19
 [F-c][Ff]E-[E-A] [EB]2 C-[G,C-EG] | [A,CFA]2 [G,CEG]4 x2 | F6 x2 | x8 | x2 .[B,G]2 x2 D2- | %24
 D2 x E x4 |] %25
V:3
 x8 |: x2 C6 | z x3/4 F,/4- F,6 | x8 | x8 | x2 C6 | z x3/4 A,/4- A,6- | A,4 x4 | x8 :| x2 C6 | %10
 x4 D4- | D4 x4 | x8 | x2 F6 | x4 A4- | A4 x4 | x8 | x2 C6 | z x3/4 F,/4- F,6 | x8 | x8 | x2 C6 | %22
 x8 | x8 | x8 |] %25
V:4
 z8 |: F,,2- [F,,C,A,]6- | [F,,C,A,]2 D4 CB, | [C,A,]2 z A, z dA,,C, | z4 z4 | z2 [C,A,]6- | %6
 [C,A,]2 [EG]6 | [D,D]3 F, .G2 z [A,C^F] | .=B,2 z B, z4 :| z2 [C,F,A,]6 | z4 z2 A2 | %11
 G,3 [C,^F,] .D2 z [_E,C] | .B,2 z C B,2 z2 | B,,,2 [F,B,D]6 | z4 z2 e2 | D3 [G,^C] .A2 z [B,G] | %16
 .F2 z [^CEG] .A,2 .=C>C | z2 [C,A,]6- | [C,A,]2 D4 CB, | [C,A,]2 z A, z dA,,C, | z4 z4 | %21
 z2 [C,A,]6- | [C,A,]2 [G,,=B,,=B,FGd]6 | [C,A,C]2 z A, G,2 [B,,G,][D,A,] | %24
 [G,B,]2 [G,B,]-[C,,G,B,] F,,4 |] %25
V:5
 x8 |: z2 x2 z4 | x8 | x2 C,4 x2 | F,2 x4{/D} .[G,,C]2- | [G,,C] z F,6 | z8 | x4 G,4 | x8 :| x8 | %10
 x2 D,6 | x8 | x8 | x8 | x2 A,6 | x8 | x8 | F,,8- | F,,2 x6 | x2 C,4 x2 | F,2 x2 z2{/D} .[G,,C]2 | %21
 F,,8- | F,,2 x6 | x8 | x8 |] %25
V:6
 x8 |: x8 | x8 | x4 G,2 x2 | x cC,D, C,B,, x A,, | F,,8- | F,,2 A6- | A3 C- C3 x | %8
 [G,F]2- [G,-A,F-]>[G,Fc] C,D,B,,[G,,C] :| F,,8 | x [C,G,] .^F,2 x3 F, | x4 [D,G,]4 | %12
 D,3 [D,A,]- [D,A,] x3 | x8 | x [G,D] .^C2 x3 C | x4 [A,D]4 | A,4 x B,2 C, | x2 F,6 | x8 | %19
 x4 G,2 x2 | x cC,D, C,B,, x A,, | x2 F,6 | x8 | x2 C,4 x2 | x2 C,6 |] %25

